!!!COM: Bach, Johann Sebastian
!!!OPR: Joh. Seb. Bachs vierstimmige Choralgesänge
!!!XEN: Four-part Chorales
!!!OTL: 47. Du grosser Schmerzensmann
!!!SCT: BWV 300
!!!SCA: Thematisch-systematisches Verzeichnis der musikalischen Werke Johann Sebastian Bach: Bach-Werke-Verzeichnis (Schmieder)
!!!YOR: Bach Gesellschaft Edition xxxix
!!!ENC: Steven Rasmussen
!!!CDT: 1685/3//-1750/7/28/
!!!OCY: Deutschland
!!!YEC: Copyright (c) 1994, 2000 Center for Computer Assisted Research in the Humanities
!!!YEM: Rights to all derivative editions reserved
!!!YEN: United States of America
**kern	**kern	**kern	**kern	**silbe
*I:[BASSO]	*I:[TENORE]	*I:[ALTO]	*I:[SOPRANO]	*I:[SOPRANO]
*clefF4	*clefGv2	*clefG2	*clefG2	*
*k[f#]	*k[f#]	*k[f#]	*k[f#]	*
*G:	*G:	*G:	*G:	*
*M4/4	*M4/4	*M4/4	*M4/4	*
4E	4B	4e	4g	Du
=1	=1	=1	=1	=1
4BB	8BL	4d	4g	gro-
.	8AJ	.	.	.
4C	8GL	4e	4g	-sser
.	8AJ	.	.	.
4BB	4B	4d	4g	Schmer-
4AA	4c	8eL	4a	-zens
.	.	8f#J	.	.
=2	=2	=2	=2	=2
2GG;	2d;	2g;	2b;	mann,
4r	4r	4r	4r	.
8GL	4d	4g	4b	vom
8F#J	.	.	.	.
=3	=3	=3	=3	=3
4E	4e	4g	4b	Va-
4BB	4d	8gL	4dd	-ter
.	.	8f#J	.	.
4C	4c	8eL	8gL	so
.	.	8f#J	8aJ	.
8BBL	4d	4g	4b	ge-
8CJ	.	.	.	.
=4	=4	=4	=4	=4
2D	8dL	4g	2a	-schla-
.	8A	.	.	.
.	8d	4f#	.	.
.	8cJ	.	.	.
4GG;	4B;	4d;	4g;	-gen,
4G	4d	4g	4b	Herr
=5	=5	=5	=5	=5
8DL	4d	4f#	4a	Je-
8CJ	.	.	.	.
4BB	4d#	4f#	4b	-su,
4E	4B	8f#L	4g	dir
.	.	8eJ	.	.
4AA	4c	8eL	4a	sei
.	.	8f#J	.	.
=6	=6	=6	=6	=6
2BB;	2B;	2d#;	2f#;	Dank
4r	4r	4r	4r	.
8EL	4B	4e	4g	fÃ¼r
8DJ	.	.	.	.
=7	=7	=7	=7	=7
8CL	4c	4e	4g	al-
8DJ	.	.	.	.
8CL	4G	4d	4g	-le
8BBJ	.	.	.	.
4AA	4c	8eL	4a	dei-
.	.	8d#J	.	.
4AA#	4c#	4e	4g	-ne
=8	=8	=8	=8	=8
2BB	8F#	4e	2f#	Pla-
.	4B	.	.	.
.	.	4d#	.	.
.	8A	.	.	.
4E;	4G;	4B;	4e;	-gen:
8BBL	4B	4dn	4f#	fÃ¼r
8C#J	.	.	.	.
=9	=9	=9	=9	=9
4D	4B	4d	4f#	dei-
4AA#	4c#	4e	4f#	-ne
4BB	8c#L	4d	4f#	See-
.	8BJ	.	.	.
4E	8AL	4c#	4g	-len-
.	8GJ	.	.	.
=10	=10	=10	=10	=10
2D;	2F#;	2d;	2a;	-angst,
4r	4r	4r	4r	.
4D	4d	4f#	4a	fÃ¼r
=11	=11	=11	=11	=11
8dL	4d	4f#	4a	dei-
8cJ	.	.	.	.
4B	4d	4g	4b	-ne
4A	4e	4g	4cc	Band'
4D	4d	4f#	4cc	und
=12	=12	=12	=12	=12
2G;	2d;	2g;	2b;	Not,
4r	4r	4r	4r	.
8GL	4d	4g	4b	fÃ¼r
8F#J	.	.	.	.
=13	=13	=13	=13	=13
8EL	4e	4g	4b	dei-
8DJ	.	.	.	.
8CL	4d	4g	4dd	-ne
8BBJ	.	.	.	.
4AA	8eL	8gL	4cc	Gei-
.	8dJ	8f#J	.	.
4GG	4d	4g	4b	-sse-
=14	=14	=14	=14	=14
2D;	2d;	2f#;	2a;	-lung,
4r	4r	4r	4r	.
4D	8dL	4f#	4a	fÃ¼r
.	8cJ	.	.	.
=15	=15	=15	=15	=15
8D#L	4B	8f#L	4b	dei-
8C#J	.	8eJ	.	.
8D#L	4B	4f#	4a	-nen
8BBJ	.	.	.	.
4E	4B	(8f#	4g	bit-
.	.	4e)	.	.
4BB	8.BL	.	4f#	-tern
.	.	8d#	.	.
.	16AJk	.	.	.
=16	=16	=16	=16	=16
2.EE;	2.G;	2.B;	2.e;	Tod.
==|!	==|!	==|!	==|!	==|!
*-	*-	*-	*-	*-
!!!RWG: Key is interpreted using the Humdrum key tool.
!!!URL-pdf: https://s9.imslp.org/files/imglnks/usimg/6/6b/IMSLP24489-PMLP09471-CCARH_Bach_Chorales.pdf#page=32 Musedata edition
!!!URL-pdf: https://s9.imslp.org/files/imglnks/usimg/7/7a/IMSLP04155-Bach_-_BGA_253-438.pdf#page=25 	Bach-Gesellschaft Ausgabe, Band 39 (pp.175-276) Leipzig: Breitkopf und Härtel, 1892. Plate B.W. XXXIX.
!!!END: 1994/05/17
!!!EMD: Converted from MuseData to Humdrum Dec 19, 2000, by Andreas Kornstaedt using muse2kern.
!!!EED: Craig Stuart Sapp
!!!EEV: 2024/03/31
!!!filter-keyboard: satb2gs
